flaticon/file-type/iso.svg

<svg xmlns="http://www.w3.org/2000/svg" width="32" height="32" viewBox="0 0 24 24">
    <path d="M 21.082031 5.042969 L 16.265625 0.226562 C 16.121094 0.0820312 15.925781 0 15.71875 0 L 3.707031 0 C 3.21875 0 2.691406 0.378906 2.691406 1.210938 L 2.691406 23.171875 C 2.691406 23.519531 3.039062 23.855469 3.449219 23.960938 C 3.46875 23.96875 3.492188 23.976562 3.511719 23.980469 C 3.578125 23.992188 3.644531 24 3.707031 24 L 20.292969 24 C 20.355469 24 20.421875 23.992188 20.488281 23.980469 C 20.507812 23.976562 20.53125 23.96875 20.550781 23.960938 C 20.960938 23.855469 21.308594 23.519531 21.308594 23.171875 L 21.308594 5.785156 C 21.308594 5.464844 21.273438 5.230469 21.082031 5.042969 Z M 16.167969 10.34375 L 13.367188 9.59375 C 13.414062 9.4375 13.449219 9.273438 13.449219 9.101562 C 13.449219 8.660156 13.277344 8.246094 12.964844 7.933594 C 12.652344 7.621094 12.234375 7.449219 11.792969 7.449219 C 11.644531 7.449219 11.503906 7.472656 11.367188 7.511719 L 10.617188 4.710938 C 11 4.609375 11.398438 4.554688 11.792969 4.554688 C 12.957031 4.554688 14.125 4.996094 15.011719 5.882812 C 16.21875 7.089844 16.601562 8.808594 16.167969 10.34375 Z M 15.859375 11.140625 C 15.824219 11.214844 15.785156 11.285156 15.742188 11.355469 C 15.710938 11.410156 15.683594 11.464844 15.648438 11.515625 C 15.613281 11.570312 15.578125 11.628906 15.539062 11.683594 C 15.492188 11.753906 15.441406 11.820312 15.390625 11.886719 C 15.359375 11.925781 15.328125 11.96875 15.292969 12.007812 C 15.207031 12.117188 15.113281 12.222656 15.011719 12.320312 C 14.882812 12.453125 14.742188 12.574219 14.59375 12.6875 C 14.566406 12.710938 14.535156 12.730469 14.503906 12.753906 C 14.375 12.851562 14.238281 12.941406 14.097656 13.023438 C 14.089844 13.027344 14.078125 13.035156 14.066406 13.042969 L 13.371094 10.453125 L 15.871094 11.121094 C 15.867188 11.128906 15.863281 11.132812 15.859375 11.140625 Z M 7.402344 7.925781 L 10.199219 8.675781 C 10.164062 8.816406 10.136719 8.957031 10.136719 9.101562 C 10.136719 9.546875 10.308594 9.960938 10.621094 10.273438 C 10.933594 10.585938 11.351562 10.757812 11.792969 10.757812 C 12.058594 10.757812 12.316406 10.6875 12.546875 10.570312 L 13.300781 13.390625 C 11.703125 13.953125 9.851562 13.597656 8.574219 12.324219 C 7.386719 11.132812 6.996094 9.445312 7.402344 7.925781 Z M 7.703125 7.117188 C 7.746094 7.027344 7.789062 6.945312 7.835938 6.859375 C 7.863281 6.816406 7.886719 6.773438 7.914062 6.726562 C 7.957031 6.660156 8 6.59375 8.042969 6.527344 C 8.085938 6.464844 8.132812 6.402344 8.183594 6.339844 C 8.21875 6.292969 8.25 6.246094 8.289062 6.199219 C 8.378906 6.09375 8.472656 5.988281 8.574219 5.882812 C 8.675781 5.78125 8.78125 5.6875 8.890625 5.597656 C 8.933594 5.5625 8.984375 5.527344 9.03125 5.492188 C 9.089844 5.445312 9.15625 5.398438 9.21875 5.351562 C 9.28125 5.308594 9.351562 5.265625 9.417969 5.226562 C 9.460938 5.199219 9.503906 5.171875 9.550781 5.148438 C 9.632812 5.101562 9.71875 5.054688 9.804688 5.011719 C 9.816406 5.007812 9.824219 5.003906 9.835938 5 L 10.621094 7.933594 L 7.6875 7.148438 C 7.695312 7.136719 7.699219 7.125 7.703125 7.117188 Z M 11.324219 8.421875 L 11.351562 8.40625 C 11.484375 8.320312 11.632812 8.277344 11.792969 8.277344 C 12.015625 8.277344 12.222656 8.363281 12.378906 8.519531 C 12.535156 8.675781 12.621094 8.882812 12.621094 9.101562 C 12.621094 9.324219 12.535156 9.53125 12.378906 9.6875 C 12.066406 10 11.519531 10 11.207031 9.6875 C 11.050781 9.53125 10.964844 9.324219 10.964844 9.101562 C 10.964844 8.945312 11.011719 8.792969 11.09375 8.664062 L 11.113281 8.636719 C 11.132812 8.605469 11.160156 8.574219 11.1875 8.546875 C 11.195312 8.535156 11.199219 8.527344 11.207031 8.519531 C 11.214844 8.511719 11.222656 8.507812 11.226562 8.503906 C 11.257812 8.472656 11.292969 8.445312 11.324219 8.421875 Z M 16.34375 1.476562 L 19.835938 4.964844 L 16.34375 4.964844 Z M 3.707031 23.171875 C 3.679688 23.171875 3.652344 23.160156 3.625 23.152344 C 3.5625 23.121094 3.515625 23.058594 3.515625 22.980469 L 3.515625 16.964844 L 20.484375 16.964844 L 20.484375 22.980469 C 20.484375 23.058594 20.4375 23.121094 20.375 23.152344 C 20.347656 23.160156 20.320312 23.171875 20.292969 23.171875 Z M 3.515625 16.136719 L 3.515625 1.210938 C 3.515625 1.121094 3.53125 0.828125 3.707031 0.828125 L 15.542969 0.828125 C 15.527344 0.878906 15.515625 0.933594 15.515625 0.988281 L 15.515625 5.226562 C 14.117188 3.882812 12.164062 3.445312 10.402344 3.914062 L 10.398438 3.894531 L 9.972656 4.046875 C 9.964844 4.050781 9.953125 4.054688 9.941406 4.058594 C 9.785156 4.117188 9.628906 4.183594 9.476562 4.257812 C 9.449219 4.265625 9.425781 4.277344 9.402344 4.289062 C 9.257812 4.359375 9.121094 4.4375 8.984375 4.523438 C 8.953125 4.542969 8.917969 4.558594 8.890625 4.578125 C 8.761719 4.660156 8.640625 4.75 8.519531 4.839844 C 8.484375 4.867188 8.449219 4.890625 8.417969 4.914062 C 8.269531 5.035156 8.125 5.160156 7.988281 5.300781 C 7.851562 5.4375 7.726562 5.582031 7.605469 5.726562 C 7.578125 5.761719 7.558594 5.792969 7.535156 5.828125 C 7.441406 5.949219 7.351562 6.070312 7.269531 6.199219 C 7.25 6.230469 7.230469 6.261719 7.214844 6.289062 C 7.128906 6.429688 7.050781 6.570312 6.980469 6.710938 C 6.96875 6.734375 6.957031 6.757812 6.945312 6.78125 C 6.871094 6.9375 6.804688 7.09375 6.746094 7.253906 C 6.742188 7.265625 6.738281 7.273438 6.734375 7.285156 L 6.582031 7.707031 L 6.601562 7.710938 C 6.125 9.507812 6.582031 11.5 7.988281 12.90625 C 9.039062 13.953125 10.414062 14.480469 11.792969 14.480469 C 12.375 14.480469 12.957031 14.378906 13.515625 14.191406 L 13.523438 14.214844 L 13.800781 14.089844 C 13.828125 14.082031 13.855469 14.066406 13.882812 14.054688 L 13.964844 14.019531 C 13.984375 14.011719 14 14 14.019531 13.992188 C 14.144531 13.933594 14.269531 13.875 14.390625 13.808594 C 14.421875 13.789062 14.453125 13.769531 14.484375 13.753906 C 14.59375 13.6875 14.707031 13.621094 14.8125 13.550781 C 14.871094 13.511719 14.925781 13.464844 14.984375 13.425781 C 15.058594 13.367188 15.136719 13.3125 15.210938 13.253906 C 15.34375 13.144531 15.472656 13.027344 15.59375 12.90625 C 15.730469 12.773438 15.855469 12.632812 15.972656 12.488281 C 15.996094 12.457031 16.015625 12.425781 16.039062 12.394531 C 16.132812 12.277344 16.222656 12.152344 16.304688 12.027344 C 16.320312 12.003906 16.335938 11.976562 16.351562 11.949219 C 16.433594 11.8125 16.515625 11.675781 16.585938 11.53125 C 16.597656 11.511719 16.605469 11.492188 16.617188 11.46875 C 16.691406 11.320312 16.753906 11.167969 16.8125 11.015625 C 16.816406 11.003906 16.820312 10.996094 16.824219 10.988281 L 16.984375 10.5625 L 16.964844 10.558594 C 17.417969 8.945312 17.101562 7.167969 16.027344 5.792969 L 20.320312 5.792969 C 20.375 5.792969 20.429688 5.78125 20.480469 5.769531 C 20.480469 5.773438 20.480469 5.777344 20.480469 5.78125 L 20.480469 16.136719 Z M 3.515625 16.136719"/>
    <path d="M8.1875 18.175781L8.878906 18.175781 8.878906 22.34375 8.1875 22.34375zM11.820312 20.300781C11.691406 20.207031 11.550781 20.128906 11.398438 20.0625 11.25 19.996094 11.109375 19.929688 10.980469 19.859375 10.851562 19.789062 10.746094 19.707031 10.660156 19.613281 10.570312 19.523438 10.527344 19.402344 10.527344 19.25 10.527344 19.191406 10.542969 19.125 10.574219 19.0625 10.605469 18.996094 10.644531 18.933594 10.699219 18.882812 10.75 18.828125 10.8125 18.785156 10.878906 18.75 10.949219 18.714844 11.019531 18.691406 11.09375 18.683594 11.230469 18.671875 11.34375 18.671875 11.429688 18.679688 11.515625 18.6875 11.585938 18.699219 11.636719 18.71875 11.691406 18.738281 11.730469 18.757812 11.761719 18.773438 11.789062 18.792969 11.8125 18.808594 11.835938 18.820312 11.839844 18.816406 11.851562 18.796875 11.871094 18.761719 11.890625 18.730469 11.910156 18.6875 11.9375 18.636719 11.964844 18.585938 11.992188 18.53125 12.023438 18.472656 12.054688 18.414062 12.078125 18.359375 12.101562 18.3125 11.992188 18.238281 11.847656 18.1875 11.671875 18.15625 11.496094 18.125 11.320312 18.105469 11.144531 18.105469 10.976562 18.105469 10.816406 18.132812 10.664062 18.1875 10.511719 18.238281 10.375 18.316406 10.261719 18.414062 10.144531 18.515625 10.054688 18.636719 9.988281 18.78125 9.917969 18.925781 9.882812 19.085938 9.882812 19.273438 9.882812 19.476562 9.925781 19.644531 10.015625 19.78125 10.101562 19.917969 10.210938 20.035156 10.34375 20.132812 10.472656 20.234375 10.617188 20.320312 10.765625 20.394531 10.917969 20.46875 11.058594 20.542969 11.1875 20.617188 11.320312 20.6875 11.425781 20.769531 11.515625 20.863281 11.601562 20.953125 11.644531 21.0625 11.644531 21.191406 11.644531 21.402344 11.582031 21.5625 11.460938 21.667969 11.335938 21.773438 11.160156 21.828125 10.929688 21.828125 10.855469 21.828125 10.773438 21.820312 10.6875 21.804688 10.601562 21.792969 10.515625 21.773438 10.425781 21.746094 10.339844 21.722656 10.257812 21.695312 10.175781 21.667969 10.09375 21.640625 10.027344 21.609375 9.976562 21.582031L9.855469 22.066406C9.921875 22.125 9.996094 22.171875 10.085938 22.210938 10.175781 22.25 10.265625 22.28125 10.367188 22.304688 10.464844 22.328125 10.5625 22.34375 10.65625 22.351562 10.753906 22.363281 10.847656 22.367188 10.9375 22.367188 11.148438 22.367188 11.335938 22.335938 11.503906 22.269531 11.667969 22.207031 11.808594 22.121094 11.921875 22.011719 12.035156 21.90625 12.121094 21.78125 12.183594 21.640625 12.246094 21.5 12.277344 21.351562 12.277344 21.203125 12.277344 20.980469 12.234375 20.796875 12.148438 20.65625 12.058594 20.515625 11.953125 20.398438 11.820312 20.300781zM15.871094 18.652344C15.714844 18.472656 15.53125 18.339844 15.324219 18.246094 15.113281 18.152344 14.886719 18.105469 14.636719 18.105469 14.386719 18.105469 14.160156 18.152344 13.949219 18.246094 13.738281 18.339844 13.558594 18.472656 13.398438 18.652344 13.242188 18.828125 13.121094 19.050781 13.03125 19.316406 12.945312 19.582031 12.898438 19.890625 12.898438 20.238281 12.898438 20.589844 12.945312 20.898438 13.03125 21.167969 13.121094 21.433594 13.242188 21.65625 13.398438 21.835938 13.558594 22.011719 13.738281 22.144531 13.949219 22.238281 14.160156 22.328125 14.386719 22.371094 14.636719 22.371094 14.886719 22.371094 15.113281 22.328125 15.324219 22.238281 15.53125 22.144531 15.714844 22.011719 15.871094 21.835938 16.027344 21.65625 16.152344 21.433594 16.238281 21.167969 16.328125 20.898438 16.371094 20.589844 16.371094 20.238281 16.371094 19.890625 16.328125 19.582031 16.238281 19.316406 16.152344 19.050781 16.027344 18.828125 15.871094 18.652344zM15.59375 20.976562C15.535156 21.179688 15.457031 21.34375 15.359375 21.46875 15.257812 21.59375 15.144531 21.683594 15.019531 21.738281 14.890625 21.789062 14.757812 21.820312 14.621094 21.820312 14.484375 21.820312 14.355469 21.789062 14.230469 21.730469 14.109375 21.671875 14 21.582031 13.902344 21.453125 13.808594 21.328125 13.730469 21.164062 13.675781 20.964844 13.621094 20.765625 13.59375 20.523438 13.589844 20.238281 13.59375 19.949219 13.625 19.703125 13.679688 19.503906 13.738281 19.304688 13.816406 19.140625 13.914062 19.015625 14.015625 18.886719 14.128906 18.800781 14.253906 18.746094 14.378906 18.695312 14.511719 18.667969 14.652344 18.667969 14.789062 18.667969 14.917969 18.695312 15.039062 18.753906 15.164062 18.808594 15.273438 18.902344 15.367188 19.03125 15.464844 19.15625 15.539062 19.320312 15.59375 19.519531 15.648438 19.71875 15.679688 19.957031 15.683594 20.242188 15.679688 20.53125 15.648438 20.777344 15.59375 20.976562zM15.59375 20.976562"/>
</svg>

<svg xmlns="http://www.w3.org/2000/svg" width="32" height="32" viewBox="0 0 24 24">
    <path d="M21.082 5.043L16.266.227A.771.771 0 0 0 15.719 0H3.707c-.488 0-1.016.379-1.016 1.21v21.962c0 .348.348.683.758.789.02.008.043.016.063.02.066.011.133.019.195.019h16.586c.062 0 .129-.008.195-.02a.384.384 0 0 0 .063-.02c.41-.105.758-.44.758-.788V5.785c0-.32-.036-.555-.227-.742zm-4.914 5.3l-2.8-.75a1.71 1.71 0 0 0 .081-.491 1.64 1.64 0 0 0-.484-1.168 1.649 1.649 0 0 0-1.172-.485c-.148 0-.29.024-.426.063l-.75-2.801a4.54 4.54 0 0 1 5.55 5.633zm-.309.798a2.289 2.289 0 0 1-.117.214c-.031.055-.058.11-.094.16-.035.055-.07.114-.109.169-.047.07-.098.136-.148.203-.032.039-.063.082-.098.12-.086.11-.18.216-.281.313-.13.133-.27.254-.418.367-.028.024-.059.043-.09.067a4.067 4.067 0 0 1-.438.289l-.695-2.59 2.5.668-.012.02zM7.402 7.926l2.797.75c-.035.14-.062.281-.062.426a1.649 1.649 0 0 0 1.656 1.656c.266 0 .523-.07.754-.188l.754 2.82a4.553 4.553 0 0 1-4.727-1.066 4.555 4.555 0 0 1-1.172-4.398zm.301-.809c.043-.09.086-.172.133-.258.027-.043.05-.086.078-.132l.129-.2a2.93 2.93 0 0 1 .14-.187c.036-.047.067-.094.106-.14.09-.106.184-.212.285-.317.102-.102.207-.196.317-.285.043-.035.093-.07.14-.106.059-.047.125-.094.188-.14.062-.043.133-.086.199-.125a5.239 5.239 0 0 1 .387-.215L9.835 5l.786 2.934-2.934-.786c.008-.011.012-.023.016-.03zm3.621 1.305l.028-.016a.821.821 0 0 1 1.027.113.821.821 0 0 1 0 1.168.85.85 0 0 1-1.172 0 .821.821 0 0 1-.113-1.023l.02-.027a.533.533 0 0 1 .073-.09c.008-.012.012-.02.02-.027.008-.008.016-.012.02-.016a.907.907 0 0 1 .097-.082zm5.02-6.945l3.492 3.488h-3.492zM3.707 23.172c-.027 0-.055-.012-.082-.02a.192.192 0 0 1-.11-.172v-6.015h16.97v6.015c0 .079-.047.141-.11.172-.027.008-.055.02-.082.02zm-.191-7.035V1.21c0-.09.015-.383.191-.383h11.836a.55.55 0 0 0-.027.16v4.239a5.378 5.378 0 0 0-5.114-1.313l-.004-.02-.425.153a5.365 5.365 0 0 0-.496.21c-.028.009-.051.02-.075.032a4.39 4.39 0 0 0-.418.234c-.03.02-.066.036-.093.055-.13.082-.25.172-.371.262l-.102.074a4.987 4.987 0 0 0-.43.387 6.491 6.491 0 0 0-.383.426c-.027.035-.046.066-.07.101a4.934 4.934 0 0 0-.265.371 5.685 5.685 0 0 0-.324.582c-.075.157-.141.313-.2.473l-.012.031-.152.422.02.004a5.38 5.38 0 0 0 1.386 5.195 5.375 5.375 0 0 0 3.805 1.574c.582 0 1.164-.101 1.723-.289l.007.024.278-.125c.027-.008.054-.024.082-.035l.082-.035c.02-.008.035-.02.055-.028.125-.058.25-.117.37-.183.032-.02.063-.04.094-.055.11-.066.223-.133.329-.203.058-.04.113-.086.171-.125.075-.059.153-.114.227-.172a5.388 5.388 0 0 0 .762-.766l.066-.093c.094-.118.184-.243.266-.368l.047-.078c.082-.136.164-.273.234-.418.012-.02.02-.039.031-.062a5.109 5.109 0 0 0 .207-.48l.16-.427-.02-.003a5.38 5.38 0 0 0-.937-4.766h4.293a.72.72 0 0 0 .16-.023V16.137zm0 0"/>
    <path d="M8.188 18.176h.69v4.168h-.69zm0 0M11.82 20.3a2.22 2.22 0 0 0-.422-.238 5.972 5.972 0 0 1-.418-.203 1.222 1.222 0 0 1-.32-.246.49.49 0 0 1-.086-.55.67.67 0 0 1 .52-.379c.136-.012.25-.012.336-.004a.813.813 0 0 1 .332.093c.027.02.05.036.074.047a.497.497 0 0 0 .035-.058c.02-.032.04-.075.066-.125.028-.051.055-.106.086-.164.032-.059.055-.114.079-.16a1.11 1.11 0 0 0-.43-.157 3.013 3.013 0 0 0-.527-.05c-.168 0-.329.027-.48.081-.153.051-.29.13-.403.227a1.065 1.065 0 0 0-.274.367c-.07.145-.105.305-.105.492 0 .204.043.372.133.508.086.137.195.254.328.352.129.101.273.187.422.262.152.074.293.148.421.222.133.07.239.153.329.246.086.09.129.2.129.328 0 .211-.063.372-.184.477-.125.105-.3.16-.531.16-.075 0-.157-.008-.242-.023a1.668 1.668 0 0 1-.262-.059c-.086-.023-.168-.05-.25-.078a1.258 1.258 0 0 1-.2-.086l-.12.484c.066.059.14.106.23.145.09.039.18.07.281.094.098.023.195.039.29.047.097.011.19.015.28.015.211 0 .399-.031.567-.097a1.22 1.22 0 0 0 .418-.258 1.125 1.125 0 0 0 .355-.809 1.04 1.04 0 0 0-.129-.547 1.296 1.296 0 0 0-.328-.355zm0 0M15.871 18.652a1.577 1.577 0 0 0-.547-.406 1.665 1.665 0 0 0-.687-.14c-.25 0-.477.046-.688.14a1.59 1.59 0 0 0-.55.406 1.904 1.904 0 0 0-.368.664 2.998 2.998 0 0 0-.133.922c0 .352.047.66.133.93.09.266.211.488.367.668.16.176.34.309.551.402.211.09.438.133.688.133.25 0 .476-.043.687-.133.207-.093.39-.226.547-.402.156-.18.281-.402.367-.668.09-.27.133-.578.133-.93 0-.347-.043-.656-.133-.922a1.844 1.844 0 0 0-.367-.664zm-.277 2.325a1.444 1.444 0 0 1-.235.492.912.912 0 0 1-.34.27c-.128.05-.261.081-.398.081a.908.908 0 0 1-.39-.09.905.905 0 0 1-.329-.277 1.454 1.454 0 0 1-.226-.488 2.94 2.94 0 0 1-.086-.727c.004-.289.035-.535.09-.734.058-.2.136-.363.234-.488a.874.874 0 0 1 .34-.27 1.05 1.05 0 0 1 .398-.078c.137 0 .266.027.387.086a.814.814 0 0 1 .328.277c.098.125.172.29.227.489.054.199.086.437.09.722-.004.29-.036.535-.09.735zm0 0"/>
</svg>
